4. Skillbox/img/facebook.svg

<svg fill="none" height="24" viewBox="0 0 24 24" width="24" xmlns="http://www.w3.org/2000/svg"><path d="m15.402 21v-6.966h2.333l.349-2.708h-2.682v-1.728c0-.784.218-1.319 1.342-1.319h1.434v-2.422c-.6942-.07366-1.3919-.10938-2.09-.107-2.067 0-3.482 1.262-3.482 3.58v1.996h-2.338v2.708h2.338v6.966h-8.606c-.26522 0-.51957-.1054-.70711-.2929-.18753-.1875-.29289-.4419-.29289-.7071v-16c0-.26522.10536-.51957.29289-.70711.18754-.18753.44189-.29289.70711-.29289h16c.2652 0 .5196.10536.7071.29289.1875.18754.2929.44189.2929.70711v16c0 .2652-.1054.5196-.2929.7071s-.4419.2929-.7071.2929z" fill="#fff"/></svg>

<svg width="24" height="24" viewBox="0 0 24 24" fill="none" xmlns="http://www.w3.org/2000/svg">
<path d="M15.402 21V14.034H17.735L18.084 11.326H15.402V9.598C15.402 8.814 15.62 8.279 16.744 8.279H18.178V5.857C17.4838 5.78334 16.7861 5.74762 16.088 5.75C14.021 5.75 12.606 7.012 12.606 9.33V11.326H10.268V14.034H12.606V21H4C3.73478 21 3.48043 20.8946 3.29289 20.7071C3.10536 20.5196 3 20.2652 3 20V4C3 3.73478 3.10536 3.48043 3.29289 3.29289C3.48043 3.10536 3.73478 3 4 3H20C20.2652 3 20.5196 3.10536 20.7071 3.29289C20.8946 3.48043 21 3.73478 21 4V20C21 20.2652 20.8946 20.5196 20.7071 20.7071C20.5196 20.8946 20.2652 21 20 21H15.402Z" fill="white"/>
</svg>
